X:1
T:Veno soave
T:Vieni soave
T:Bartolomeo Spontone
T:Source : Symphonia Angelica---Anversa---P.Phalesio & G.Bellero---1585. Editor : André Vierendeels (22/01/14).
C:Bartolomeo Spontone
%%score [ 1 2 3 4 ]
L:1/8
Q:1/4=100
M:4/4
K:F
V:1 treble nm="Canto" snm="C"
V:2 treble nm="Alto" snm="A"
V:3 treble-8 nm="Tenor" snm="T"
V:4 bass nm="Basso" snm="B"
V:1
 c8 | c4 c2 d2- | d2 d2 c3 c | d2 e2 f4 | e4 z2 e2 | e2 c2 d2 c2 | c4 c2 G2 | A2 B2 A2 F2- | %8
w: Vie-|ni so- a-|* v'e di- let-|to- so Mag-|gio, hor|che'l lu- cen- te|rag- gio, hor|che'l lu- cen- te|
 F2 ED E4 | F4 f4 | f2 f2 f4 | e4 e4 | e2 f2 d4 | c4 c3 B | AG F2 A4 | G2 c4 B2 | c2 c2 G2 A2 | %17
w: _ _ _ rag-|gio d'A-|pol- lo scal-|da, d'A-|pol- lo scal-|da'l taur'- *|* * am- be|le cor- *|na, am- be le|
 B4 G2 d2- | d2 A2 f4 | c4 z2 c2- | c2 f2 d2 d2 | f4 e4 | z2 e2 g2 d2 | ed cd ec d2 | d4 c4 | %25
w: cor- na, vie-|* ni, vie-|ni, e|_ di fior'- a-|dor- na,|non so- lo|mon- * * * * * *|ti pia-|
 c4 z2 B2- | BA GF G2 A2 | B8 | A4 A4- | A2 F4 f2- | f2 ed e4 | c4 z2 c2 | c2 c2 f2 f2 | %33
w: ni pra-|* * * * * ti'e|ri-|ve, pra-|* ti'e ri-||ve, m'al-|le piu ho- ne-|
 d3 c B2 A2 | z2 c3 c G2 | B2 B2 A2 d2 | cB AG A2 G2- | GF F3 E/D/ E2 | F2 A2 A2 G2 | B2 A4 G2 | %40
w: st'e _ schi- ve,|gio- va- net-|te d'a- mor le|tem- * * * * pi'el|_ _ pet- * * *|to, con si so-|a- ve'af- fet-|
 A4 z2 c2- | cc F2 A2 G2 | A2 A2 F2 f2 | e4 e2 e2 | c2 d2 B4 | A8 | z4 c4 | c2 A2 c2 d2 | %48
w: to, che|_ cias- cu- na d'a-|mor di- ven- gh'a-|mi- ca, di-|ven- gh'a- mi-|ca,|t'al|ch' ogn'a- man- te|
 ec f4 e2 | f4 c4 | c4 c2 d2- | d2 d2 c3 c | d2 e2 f4 | e4 c4 | c2 d2 c4- | c2 c2 c4 | c8 |] %57
w: di- * * *|ca, vie-|ni so- a-|* v'e di- let-|to- so Mag-|gio, e|di- let- to-|* so Mag-|gio.|
V:2
 A8 | G4 A2 B2- | B2 B2 A3 A | A2 G2 F3 G | A2 G2 z2 G2 | G2 A2 F2 A2 | A4 G2 E2 | F2 F2 F2 C2 | %8
w: Vie-|ni so- a-|* v'e di- let-|to- so Mag- *|* gio, hor|che'l lu- cen- te|rag- gio, hor|che'l lu- cen- te|
 C8 | C4 D4 | D2 D2 C4 | C2 c4 c2- | c2 c2 B4 | A2 G4 A2 | cB AG F2 F2 | E2 G2 z2 G2 | G2 E2 E4 | %17
w: rag-|gio d'A-|pol- lo scal-|da, d'A- pol-|* lo scal-|da'l taur' am-|be _ _ _ _ le|cor- na, am-|be le cor-|
 D4 B4 | A2 F3 G AB | A2 G2 G2 A2- | A2 A2 A2 D2 | z2 A2 c2 G2 | c4 =B2 B2 | c2 A2 GA Bc | %24
w: na, vie-|ni, vie- * * *|ni, e di fior'-|* a- dor- na,|non so- lo|mon- ti, non|so- lo mon- * * *|
 B3 A G4 | A2 A,4 D2 | D4 D2 F2- | F2 ED F2 E2 | F4 z2 F2 | FG AB A2 A2 | G2 G2 G4 | A2 G2 G2 G2 | %32
w: |ti, pia- ni|pra- ti'e ri-||ve, m'al-|le _ _ _ _ piu|ho- ne- st'e|schi- ve, piu- ho-|
 A2 A2 A4 | G4 z2 F2- | FD F2 E2 E2 | D2 G3 F A2 | A2 F2 E2 E2 | D2 C2 C4 | C2 F2 E2 E2 | %39
w: ne- st'e schi-|ve, gio-|* va- net- te d'a-|mor, gio- va- net-|te d'a- mor, le|tem- pi'el pet-|to, con si so-|
 F2 E2 D4 | E2 E3 E F2 | E2 D2 C2 E2 | F2 F2 C4 | C2 G2 G4 | A2 F3 E/D/ E2 | F4 z2 F2 | F2 D2 F4 | %47
w: a- ve'af- fet-|to, che cias- cu-|na d'a- mor di-|ven- gh'a- mi-|ca, di- ven-|gh'a- mi- * * *|ca, t'al|ch' ogn'a- man-|
 F2 F2 A2 A2 | G2 F2 G4 | A4 A4 | G4 A2 B2- | B2 B2 A3 A | A2 G2 F2 D2 | G4 A4 | A2 G2 A4- | %55
w: te, t'al ch' ogn'a-|man- te di-|ca, vie-|ni so- a-|* v'e di- let-|to- so Mag- *|gio,- e|di- let- to-|
 A2 G2 G4 | A8 |] %57
w: * so Mag-|gio.|
V:3
 f8 | e4 f2 f2- | f2 f2 f3 f | f2 c4 B2 | c4 z2 c2 | c2 A2 B2 F2 | f4 e2 c2 | c2 d2 cB AG | %8
w: Vie-|ni so- a-|* v'e di- let-|to- so Mag-|gio, hor|che'l lu- cen- te|rag- gio, hor|che'l lu- cen- * * *|
 A2 G2 G4 | A4 B4 | B2 B2 A4 | G4 z2 g2 | g2 a2 f4- | f2 ed e2 e2 | f2 c2 d2 c2 | cd ec d4 | %16
w: * te rag-|gio d'A-|pol- lo scal-|da, d'A-|pol- lo scal-|* * * * da'l|taur' am- be le|cor- * * * *|
 c2 G2 c2 c2 | G4 d4 | z2 d4 c2 | z2 e4 f2 | c2 d2 f3 e | d2 c3 d ef | g2 c2 d4 | c2 e4 g2- | %24
w: na, am- be le|cor- na,|vie- ni,|e di|fior' a- dor- *|* na, _ _ _|_ a- dor-|na, non so-|
 g2 d2 e4 | f4 F4 | G4 B2 c2 | B3 c d2 G2 | z2 c4 c2 | d4 c4 | z2 c2 c2 c2 | f2 e2 e4 | %32
w: * lo mon-|ti pia-|ni pra- ti'e|ri- * * ve,|pra- ti'e|ri- ve,|m'al- le piu'ho-|ne- st'e schi-|
 f2 f3 f d2 | B2 B2 d4 | A3 A G2 cc | B2 d3 d f2 | f2 c2 c2 c2 | B2 A2 G4 | A2 c2 c2 c2 | %39
w: ve, gio- va- net-|te d'a- mor,|gio va- net- to d'a-|mor, gio- va- net-|to d'a- mor, le|tem- pi'el pet-|to, con si so-|
 d2 c2 B4 | A8 | z4 z2 c2- | cc F2 A2 A2 | G4 c4 | A2 B2 G4 | F2 c2 c2 d2 | c2 B2 A4 | %47
w: a- ve'af- fet-|to,|che-|_ cias- cu- na d'a-|mor di-|ven- gh'a- mi-|ca, t'al ch'ogn'a- man-|te di- *|
 A2 c2 c2 A2 | c2 d2 c4 | c4 f4 | e4 f2 f2- | f2 f2 f3 f | f2 c4 B2 | c2 c4 f2- | f2 d2 e2 f2- | %55
w: ca, t'al ch' ogn'a-|man- te di-|ca, vie-|ni so- a-|* v'e di- let-|to- so Mag-|gio, e di-|* let- to- *|
 f2 ed e4 | f8 |] %57
w: * so _ Mag-|gio.|
V:4
 F,8 | C,4 F,2 B,,2- | B,,2 B,,2 F,3 F, | F,2 E,2 D,4 | C,8 | z8 | z4 C,4 | F,2 B,,2 F,2 F,2 | %8
w: Vie-|ni so- a-|* v'e di- let-|to- so Mag-|gio,||hor|che'l lu- cen- te|
 C,8 | F,4 B,,4 |"^-natural" B,,2 B,,2 F,4 | C,4 C4 | C2 A,2 B,4 | F,2 C3 B, A,G, | %14
w: rag-|gio d'A-|pol- lo scal-|da, d'A-|pol- lo scal|da'l taur'- * * *|
 F,3 E, D,2 F,2 | C,2 C,2 G,4 | C,8 | z4 G,4 | D,4 z2 F,2- | F,2 C,4 F,2 | F,2 D,4 B,2- | %21
w: * * * am-|be le cor-|na,|vie-|ni, vie-|* ni'e di|fior a- dor-|
 B,A, F,G, A,B, C2- | CB, A,2 G,4 | z2 A,2 C2 G,2 | G,4 C4 | z2 F,4 B,,2 | z2 B,4 A,2 | G,8 | %28
w: |* * * na,|non so- lo|mon- ti|pia- ni|pra- ti'e|ri-|
 F,4 F,3 E, | D,2 D,2 F,4 | C,8 | z2 C,2 C,2 C,2 | F,2 F,2 D,4 | G,2 G,3 G, D,2 | F,2 F,2 C,4 | %35
w: ve, pra- *|* ti'e ri-|ve,|m'al- le piu'ho-|ne- st'e schi-|ve, gio- va- net-|te d'a- mor,|
 G,3 G, D,4 | F,2 F,2 C,2 C,2 | D,2 F,2 C,4 | F,4 z4 | z8 | z2 C3 C F,2 | A,2 B,2 F,2 C,2 | %42
w: gio- va- net-|to d'a- mor, le|tem- pi'el pet-|to,||che cias- cu-|na d'a- mor di-|
 F,2 D,2 F,4 | C,8 | z8 | z2 F,2 F,2 D,2 | F,2 G,2 F,4- | F,4 F,4 | z8 | F,8 | C,4 F,2 B,,2- | %51
w: ven- gh'a- mi-|ca,||t'al ch'ogn'a- man-|te di- *|* ca||vie-|ni so- a-|
 B,,2 B,,2 F,3 F, | F,2 E,2 D,4 | C,4 F,4 | F,2 B,2 A,2 F,2 | C8 | F,8 |] %57
w: * v'e di- let-|to- so Mag-|gio, et|di- let- to- so|Mag-|gio.|

